svg/furkot/icomoon/envelop.svg

<svg viewBox="0 0 512 512" xmlns="http://www.w3.org/2000/svg"><path d="m464 64h-416c-26.4 0-48 21.6-48 48v320c0 26.4 21.6 48 48 48h416c26.4 0 48-21.6 48-48v-320c0-26.4-21.6-48-48-48zm-264.632 211.184-135.368 105.448v-250.824zm-111.176-147.184h335.624l-167.808 126-167.808-126zm116.456 152.848 51.352 55.152 51.352-55.152 105.28 135.152h-313.264zm107.984-5.664 135.368-145.376v250.824z"/></svg>

<svg xmlns="http://www.w3.org/2000/svg" viewBox="0 0 512 512"><path d="M464 64H48C21.6 64 0 85.6 0 112V432C0 458.4 21.6 480 48 480H464C490.4 480 512 458.4 512 432V112C512 85.6 490.4 64 464 64ZM199.368 275.184L64 380.632V129.808L199.368 275.184ZM88.192 128H423.816L256.008 254 88.2 128ZM204.648 280.848L256 336 307.352 280.848 412.632 416H99.368L204.648 280.848ZM312.632 275.184L448 129.808V380.632L312.632 275.184Z"/></svg>
